REACT_GL/src/assets/logo_Rich olive-2.svg

<svg width="325" height="120" viewBox="0 0 325 120" fill="none" xmlns="http://www.w3.org/2000/svg">
<path d="M26.2 80.1H16.8V78H18.5C19.3 78 20.0001 77.5 20.2001 76.7L28.5 40.5H31.6L39.2 76.7C39.4 77.5 40.1001 78.1 40.9001 78.1H42.8001V80.2H32.2V78.1H34.9001C35.4001 78.1 35.8 77.6 35.7 77.1L33.8001 67.6H25L22.9001 77.1C22.9001 77.6 23.2001 78.1 23.7001 78.1H26.4001V80.2H26.2V80.1ZM29.5 46.5L25.4001 65H33.1L29.5 46.5Z" fill="#404231"/>
<path d="M81.8001 80.0999H71.1001V77.9999H73.4001C74.1001 77.9999 74.7001 77.3999 74.7001 76.6999V44.0999C74.7001 43.2999 74.0001 42.5999 73.2001 42.5999H71.3001V40.4999H82.0001V42.5999H79.8001C79.0001 42.5999 78.3001 43.2999 78.3001 44.0999V59.4999C80.5001 59.4999 81.7001 58.3999 82.8001 56.1999L88.7001 43.2999C88.9001 42.8999 88.7001 42.4999 88.2001 42.4999H86.5001V40.3999H95.5001V42.4999H93.4001C92.5001 42.4999 91.6001 42.9999 91.3001 43.8999L84.0001 59.1999L91.9001 76.1999C92.4001 77.2999 93.4001 77.8999 94.6001 77.8999H96.2001V79.9999H89.9001C87.0001 73.7999 84.0001 67.5999 81.1001 61.3999L78.3001 61.0999V76.4999C78.3001 77.1999 78.9001 77.7999 79.6001 77.7999H81.7001V80.0999H81.8001Z" fill="#404231"/>
<path d="M169.8 78.1001C172.4 75.6001 172.4 72.0001 172.4 71.0001C172.4 66.7001 170.5 63.2001 166.1 58.6001C162 54.1001 159.9 51.1001 159.9 47.6001C159.9 44.1001 161.7 42.0001 164.7 42.0001C167.7 42.0001 168.1 43.3001 168.6 45.7001L169.8 52.7001H171.6V40.5001C171.6 39.9001 171.5 39.6001 170.8 39.6001H170L169.2 41.5001C168.4 40.4001 166.9 39.7001 164.6 39.7001C159.6 39.7001 156.5 42.8001 156.5 48.0001C156.5 53.2001 158.9 56.4001 163 60.8001C167.1 65.2001 169.1 68.1001 169.1 71.6001C169.1 75.1001 167 78.0001 163.5 78.0001C160.9 77.8001 158.3 75.7001 158.2 71.0001L157.7 65.3001H156V79.4001C156 80.2001 156.2 80.6001 157 80.6001H157.5C157.6 80.3001 157.7 80.1001 157.8 80.0001C158.1 79.4001 158.1 79.2001 158.4 79.1001C158.5 79.1001 158.7 79.1001 158.7 79.1001C159 79.1001 159.3 79.1001 159.5 79.3001C159.5 79.3001 159.7 79.3001 159.8 79.5001C160 79.7001 160.3 79.8001 160.7 79.9001C161.7 80.3001 162.9 80.5001 164.3 80.5001C165.7 80.5001 164.8 80.5001 165 80.5001C167.7 80.2001 169.5 78.5001 169.8 78.2001V78.1001Z" fill="#404231"/>
<path d="M322 78.1001C324.6 75.6001 324.6 72.0001 324.6 71.0001C324.6 66.7001 322.7 63.2001 318.3 58.6001C314.2 54.1001 312.1 51.1001 312.1 47.6001C312.1 44.1001 313.9 42.0001 316.9 42.0001C319.9 42.0001 320.3 43.3001 320.8 45.7001L322 52.7001H323.8V40.5001C323.8 39.9001 323.7 39.6001 323 39.6001H322.2L321.4 41.5001C320.6 40.4001 319.1 39.7001 316.8 39.7001C311.8 39.7001 308.7 42.8001 308.7 48.0001C308.7 53.2001 311.1 56.4001 315.2 60.8001C319.3 65.2001 321.3 68.1001 321.3 71.6001C321.3 75.1001 319.2 78.0001 315.7 78.0001C313.1 77.8001 310.5 75.7001 310.4 71.0001L309.9 65.3001H308.2V79.4001C308.2 80.2001 308.4 80.6001 309.2 80.6001H309.7C309.8 80.3001 309.9 80.1001 310 80.0001C310.3 79.4001 310.3 79.2001 310.6 79.1001C310.7 79.1001 310.9 79.1001 310.9 79.1001C311.2 79.1001 311.5 79.1001 311.7 79.3001C311.7 79.3001 311.9 79.3001 312 79.5001C312.2 79.7001 312.5 79.8001 312.9 79.9001C313.9 80.3001 315.1 80.5001 316.5 80.5001C317.9 80.5001 317 80.5001 317.2 80.5001C319.9 80.2001 321.7 78.5001 322 78.2001V78.1001Z" fill="#404231"/>
<path d="M274.7 80.4998C267.8 80.4998 264.6 74.5998 264.6 60.9998C264.6 47.3998 267.9 39.7998 274.8 39.7998C281.7 39.7998 278.2 40.3998 279.1 41.5998L280 39.7998H280.7C281.3 39.7998 281.5 40.0998 281.5 40.6998V52.6998H279.7L278.6 46.3998C278.2 43.2998 277.2 42.0998 274.8 42.0998C270.4 42.0998 268.4 47.8998 268.4 60.9998C268.4 74.0998 270.5 77.7998 275.2 77.7998C279.9 77.7998 279.1 76.4998 279.9 73.4998L282.1 74.0998C281.2 78.4998 278.9 80.4998 274.7 80.4998Z" fill="#404231"/>
<path d="M147.6 42.9001C148.4 42.9001 149.1 43.5001 149.2 44.3001C149.3 45.1001 149.6 45.8001 149.8 46.6001C150.2 48.4001 150.1 48.3001 150.5 50.3001H151.9V40.6001H132.5V42.7001H134.8C135.5 42.7001 136.1 43.3001 136.1 44.0001V74.9001V76.7001C136.1 77.4001 135.5 78.0001 134.8 78.0001H132.5V80.1001H151.9V70.1001H150.5C150.5 70.4001 150.4 70.8001 150.3 71.3001C150.1 72.3001 150.1 72.7001 149.9 73.4001C149.5 75.9001 149.3 76.0001 149.3 76.3001C149.2 77.1001 148.5 77.7001 147.7 77.7001H139.7V60.8001H143C144.1 60.8001 145 61.5001 145.2 62.5001C145.4 63.3001 145.6 64.1001 145.8 64.9001L147.3 64.7001V54.6001L145.8 54.4001C145.6 55.2001 145.4 56.0001 145.2 56.8001C144.9 57.8001 144 58.5001 143 58.5001H139.7V42.8001H147.7H147.6V42.9001Z" fill="#404231"/>
<path d="M228.6 42.9001C229.4 42.9001 230.1 43.5001 230.2 44.3001C230.3 45.1001 230.6 45.8001 230.8 46.6001C231.2 48.4001 231.1 48.3001 231.5 50.3001H232.9V40.6001H213.5V42.7001H215.8C216.5 42.7001 217.1 43.3001 217.1 44.0001V74.9001V76.7001C217.1 77.4001 216.5 78.0001 215.8 78.0001H213.5V80.1001H232.9V70.1001H231.5C231.5 70.4001 231.4 70.8001 231.3 71.3001C231.1 72.3001 231.1 72.7001 230.9 73.4001C230.5 75.9001 230.3 76.0001 230.3 76.3001C230.2 77.1001 229.5 77.7001 228.7 77.7001H220.7V60.8001H224C225.1 60.8001 226 61.5001 226.2 62.5001C226.4 63.3001 226.6 64.1001 226.8 64.9001L228.3 64.7001V54.6001L226.8 54.4001C226.6 55.2001 226.4 56.0001 226.2 56.8001C225.9 57.8001 225 58.5001 224 58.5001H220.7V42.8001H228.7H228.6V42.9001Z" fill="#404231"/>
<path d="M198.9 40.5002H189.8V42.6002H192.1C192.8 42.6002 193.4 43.2002 193.4 43.9002V44.3002V76.1002V76.5002C193.4 77.2002 192.8 77.8002 192.1 77.8002H189.8V79.9002H198.9C207.7 79.9002 211.6 73.5002 211.6 59.2002C211.6 44.9002 207.7 40.2002 198.9 40.2002V40.5002ZM198.9 77.7002H197V42.8002H198.9C205.1 42.8002 207.8 47.9002 207.8 59.4002C207.8 70.9002 205.1 77.7002 198.9 77.7002Z" fill="#404231"/>
<path d="M184.2 78.0001C183.5 78.0001 182.9 77.4001 182.9 76.7001V74.9001V50.7001V44.0001C182.9 43.2001 183.5 42.6001 184.3 42.6001H186.5V40.6001H175.6V42.6001H177.8C178.6 42.6001 179.2 43.2001 179.2 44.0001V74.9001V76.7001C179.2 77.4001 178.6 78.0001 177.9 78.0001H175.6V78.7001V80.1001H186.5V78.0001H184.2Z" fill="#404231"/>
<path d="M128.2 78.0999C127.3 77.8999 126.6 77.1999 126.2 76.2999L122.4 65.2999C121.8 63.6999 121.4 62.7999 121 61.9999C124.6 60.2999 127.3 57.0999 127.3 51.1999C127.3 45.2999 124.3 40.3999 116.2 40.3999H107.3V42.4999H109.3C110 42.4999 110.6 43.0999 110.6 43.7999V44.1999V74.6999V76.4999C110.6 77.1999 110 77.7999 109.3 77.7999H107.3V79.8999H117.6V77.7999H115.5C114.8 77.7999 114.2 77.1999 114.2 76.4999V74.6999V62.5999H118.1L123.7 79.9999H130L130.3 78.5999L128.1 77.9999L128.2 78.0999ZM116.8 60.3999H114.2V42.7999H116.3C121.6 42.7999 123.7 45.1999 123.7 51.1999C123.7 57.1999 121.5 60.2999 116.8 60.2999V60.3999Z" fill="#404231"/>
<path d="M66.2999 78.0999C65.3999 77.8999 64.6999 77.1999 64.2999 76.2999L60.4999 65.2999C59.8999 63.6999 59.4999 62.7999 59.0999 61.9999C62.6999 60.2999 65.3999 57.0999 65.3999 51.1999C65.3999 45.2999 62.3999 40.3999 54.2999 40.3999H45.3999V42.4999H47.3999C48.0999 42.4999 48.6999 43.0999 48.6999 43.7999V44.1999V74.6999V76.4999C48.6999 77.1999 48.0999 77.7999 47.3999 77.7999H45.3999V79.8999H55.6999V77.7999H53.5999C52.8999 77.7999 52.2999 77.1999 52.2999 76.4999V74.6999V62.5999H56.1999L61.7999 79.9999H68.0999L68.3999 78.5999L66.1999 77.9999L66.2999 78.0999ZM54.8999 60.3999H52.2999V42.7999H54.3999C59.6999 42.7999 61.7999 45.1999 61.7999 51.1999C61.7999 57.1999 59.5999 60.2999 54.8999 60.2999V60.3999Z" fill="#404231"/>
<path d="M258.8 45.7V43.9C258.8 43.2 259.4 42.6 260.1 42.6H262.4V40.5H252.6V42.6H254.9C255.6 42.6 256.2 43.2 256.2 43.9V45.7V72C255.9 70.4 255.5 68.8 255.3 67.9L247.2 41.8C246.9 40.9 246.3 40.5 245.4 40.5H237.7V42.6H240C240.7 42.6 241.3 43.2 241.3 43.9V45.7V74.8V76.6C241.3 77.3 240.7 77.9 240 77.9H237.7V80H247.4V77.9H245.2C244.5 77.9 243.9 77.3 243.9 76.6V77.7V43.8H244.2L255.8 80H258.8V45.6V45.7Z" fill="#404231"/>
<path d="M288.2 40.4999H284.6V42.5999H286.9C287.6 42.5999 288.2 43.1999 288.2 43.8999V74.7999V76.5999C288.2 77.2999 287.6 77.8999 286.9 77.8999H284.6V79.9999H304V69.9999H302.6C302.6 70.2999 302.5 70.6999 302.4 71.1999C302.2 72.1999 302.2 72.5999 302 73.2999C301.6 75.7999 301.4 75.8999 301.4 76.1999C301.3 76.9999 300.6 77.5999 299.8 77.5999H291.8V60.6999H295.1C296.2 60.6999 297.1 61.3999 297.3 62.3999C297.5 63.1999 297.7 63.9999 297.9 64.7999L299.4 64.5999V54.4999L297.9 54.2999C297.7 55.0999 297.5 55.8999 297.3 56.6999C297 57.6999 296.1 58.3999 295.1 58.3999H291.8V42.6999H299.8C300.6 42.6999 301.3 43.2999 301.4 44.0999C301.5 44.5999 301.8 45.5999 302 46.3999C302.4 48.1999 302.3 48.0999 302.7 50.0999H304.1V40.3999H288.2V40.4999Z" fill="#404231"/>
<path d="M7.0001 76.3V64.5C7.7001 64.7 8.4001 64.7 9.4001 64.7C16.3001 64.7 19.8001 60.4 19.8001 51.9C19.8001 43.4 17.1001 40.9 10.6001 40.5H0.100098V42.6H2.1001C2.8001 42.6 3.4001 43.2 3.4001 43.9V44.3V73.3V74.8V76.2V76.7C3.4001 77.4 2.8001 78 2.1001 78H0.100098V80.1H10.4001V78H8.3001C7.6001 78 7.0001 77.4 7.0001 76.7V76.4V76.3ZM8.9001 42.9C14.0001 42.9 16.1001 45.4 16.1001 52.1C16.1001 58.8 14.0001 62.4 9.3001 62.4C4.6001 62.4 7.6001 62.4 7.0001 62.2V47.6V42.8H8.9001V42.9Z" fill="#404231"/>
</svg>

<svg fill="none" height="120" viewBox="0 0 325 120" width="325" xmlns="http://www.w3.org/2000/svg"><g fill="#404231"><path d="m26.2 80.1h-9.4v-2.1h1.7c.8 0 1.5001-.5 1.7001-1.3l8.2999-36.2h3.1l7.6 36.2c.2.8.9001 1.4 1.7001 1.4h1.9v2.1h-10.6001v-2.1h2.7001c.5 0 .8999-.5.7999-1l-1.8999-9.5h-8.8001l-2.0999 9.5c0 .5.3 1 .8 1h2.7v2.1h-.2001zm3.3-33.6-4.0999 18.5h7.6999z"/><path d="m81.8001 80.0999h-10.7v-2.1h2.3c.7 0 1.3-.6 1.3-1.3v-32.6c0-.8-.7-1.5-1.5-1.5h-1.9v-2.1h10.7v2.1h-2.2c-.8 0-1.5.7-1.5 1.5v15.4c2.2 0 3.4-1.1 4.5-3.3l5.9-12.9c.2-.4 0-.8-.5-.8h-1.7v-2.1h9v2.1h-2.1c-.9 0-1.8.5-2.1 1.4l-7.3 15.3 7.9 17c.5 1.1 1.5 1.7 2.7 1.7h1.6v2.1h-6.3c-2.9-6.2-5.9-12.4-8.8-18.6l-2.8-.3v15.4c0 .7.6 1.3 1.3 1.3h2.1v2.3z"/><path d="m169.8 78.1001c2.6-2.5 2.6-6.1 2.6-7.1 0-4.3-1.9-7.8-6.3-12.4-4.1-4.5-6.2-7.5-6.2-11s1.8-5.6 4.8-5.6 3.4 1.3 3.9 3.7l1.2 7h1.8v-12.2c0-.6-.1-.9-.8-.9h-.8l-.8 1.9c-.8-1.1-2.3-1.8-4.6-1.8-5 0-8.1 3.1-8.1 8.3s2.4 8.4 6.5 12.8 6.1 7.3 6.1 10.8-2.1 6.4-5.6 6.4c-2.6-.2-5.2-2.3-5.3-7l-.5-5.7h-1.7v14.1c0 .8.2 1.2 1 1.2h.5c.1-.3.2-.5.3-.6.3-.6.3-.8.6-.9h.3c.3 0 .6 0 .8.2 0 0 .2 0 .3.2.2.2.5.3.9.4 1 .4 2.2.6 3.6.6h.7c2.7-.3 4.5-2 4.8-2.3z"/><path d="m322 78.1001c2.6-2.5 2.6-6.1 2.6-7.1 0-4.3-1.9-7.8-6.3-12.4-4.1-4.5-6.2-7.5-6.2-11s1.8-5.6 4.8-5.6 3.4 1.3 3.9 3.7l1.2 7h1.8v-12.2c0-.6-.1-.9-.8-.9h-.8l-.8 1.9c-.8-1.1-2.3-1.8-4.6-1.8-5 0-8.1 3.1-8.1 8.3s2.4 8.4 6.5 12.8 6.1 7.3 6.1 10.8-2.1 6.4-5.6 6.4c-2.6-.2-5.2-2.3-5.3-7l-.5-5.7h-1.7v14.1c0 .8.2 1.2 1 1.2h.5c.1-.3.2-.5.3-.6.3-.6.3-.8.6-.9h.3c.3 0 .6 0 .8.2 0 0 .2 0 .3.2.2.2.5.3.9.4 1 .4 2.2.6 3.6.6h.7c2.7-.3 4.5-2 4.8-2.3z"/><path d="m274.7 80.4998c-6.9 0-10.1-5.9-10.1-19.5s3.3-21.2 10.2-21.2 3.4.6 4.3 1.8l.9-1.8h.7c.6 0 .8.3.8.9v12h-1.8l-1.1-6.3c-.4-3.1-1.4-4.3-3.8-4.3-4.4 0-6.4 5.8-6.4 18.9s2.1 16.8 6.8 16.8 3.9-1.3 4.7-4.3l2.2.6c-.9 4.4-3.2 6.4-7.4 6.4z"/><path d="m147.6 42.9001c.8 0 1.5.6 1.6 1.4s.4 1.5.6 2.3c.4 1.8.3 1.7.7 3.7h1.4v-9.7h-19.4v2.1h2.3c.7 0 1.3.6 1.3 1.3v30.9 1.8c0 .7-.6 1.3-1.3 1.3h-2.3v2.1h19.4v-10h-1.4c0 .3-.1.7-.2 1.2-.2 1-.2 1.4-.4 2.1-.4 2.5-.6 2.6-.6 2.9-.1.8-.8 1.4-1.6 1.4h-8v-16.9h3.3c1.1 0 2 .7 2.2 1.7.2.8.4 1.6.6 2.4l1.5-.2v-10.1l-1.5-.2c-.2.8-.4 1.6-.6 2.4-.3 1-1.2 1.7-2.2 1.7h-3.3v-15.7h8-.1z"/><path d="m228.6 42.9001c.8 0 1.5.6 1.6 1.4s.4 1.5.6 2.3c.4 1.8.3 1.7.7 3.7h1.4v-9.7h-19.4v2.1h2.3c.7 0 1.3.6 1.3 1.3v30.9 1.8c0 .7-.6 1.3-1.3 1.3h-2.3v2.1h19.4v-10h-1.4c0 .3-.1.7-.2 1.2-.2 1-.2 1.4-.4 2.1-.4 2.5-.6 2.6-.6 2.9-.1.8-.8 1.4-1.6 1.4h-8v-16.9h3.3c1.1 0 2 .7 2.2 1.7.2.8.4 1.6.6 2.4l1.5-.2v-10.1l-1.5-.2c-.2.8-.4 1.6-.6 2.4-.3 1-1.2 1.7-2.2 1.7h-3.3v-15.7h8-.1z"/><path d="m198.9 40.5002h-9.1v2.1h2.3c.7 0 1.3.6 1.3 1.3v.4 31.8.4c0 .7-.6 1.3-1.3 1.3h-2.3v2.1h9.1c8.8 0 12.7-6.4 12.7-20.7s-3.9-19-12.7-19zm0 37.2h-1.9v-34.9h1.9c6.2 0 8.9 5.1 8.9 16.6s-2.7 18.3-8.9 18.3z"/><path d="m184.2 78.0001c-.7 0-1.3-.6-1.3-1.3v-1.8-24.2-6.7c0-.8.6-1.4 1.4-1.4h2.2v-2h-10.9v2h2.2c.8 0 1.4.6 1.4 1.4v30.9 1.8c0 .7-.6 1.3-1.3 1.3h-2.3v.7 1.4h10.9v-2.1z"/><path d="m128.2 78.0999c-.9-.2-1.6-.9-2-1.8l-3.8-11c-.6-1.6-1-2.5-1.4-3.3 3.6-1.7 6.3-4.9 6.3-10.8s-3-10.8-11.1-10.8h-8.9v2.1h2c.7 0 1.3.6 1.3 1.3v.4 30.5 1.8c0 .7-.6 1.3-1.3 1.3h-2v2.1h10.3v-2.1h-2.1c-.7 0-1.3-.6-1.3-1.3v-1.8-12.1h3.9l5.6 17.4h6.3l.3-1.4-2.2-.6zm-11.4-17.7h-2.6v-17.6h2.1c5.3 0 7.4 2.4 7.4 8.4s-2.2 9.1-6.9 9.1z"/><path d="m66.2999 78.0999c-.9-.2-1.6-.9-2-1.8l-3.8-11c-.6-1.6-1-2.5-1.4-3.3 3.6-1.7 6.3-4.9 6.3-10.8s-3-10.8-11.1-10.8h-8.9v2.1h2c.7 0 1.3.6 1.3 1.3v.4 30.5 1.8c0 .7-.6 1.3-1.3 1.3h-2v2.1h10.3v-2.1h-2.1c-.7 0-1.3-.6-1.3-1.3v-1.8-12.1h3.9l5.6 17.4h6.3l.3-1.4-2.2-.6zm-11.4-17.7h-2.6v-17.6h2.1c5.3 0 7.4 2.4 7.4 8.4s-2.2 9.1-6.9 9.1z"/><path d="m258.8 45.7v-1.8c0-.7.6-1.3 1.3-1.3h2.3v-2.1h-9.8v2.1h2.3c.7 0 1.3.6 1.3 1.3v1.8 26.3c-.3-1.6-.7-3.2-.9-4.1l-8.1-26.1c-.3-.9-.9-1.3-1.8-1.3h-7.7v2.1h2.3c.7 0 1.3.6 1.3 1.3v1.8 29.1 1.8c0 .7-.6 1.3-1.3 1.3h-2.3v2.1h9.7v-2.1h-2.2c-.7 0-1.3-.6-1.3-1.3v1.1-33.9h.3l11.6 36.2h3v-34.4z"/><path d="m288.2 40.4999h-3.6v2.1h2.3c.7 0 1.3.6 1.3 1.3v30.9 1.8c0 .7-.6 1.3-1.3 1.3h-2.3v2.1h19.4v-10h-1.4c0 .3-.1.7-.2 1.2-.2 1-.2 1.4-.4 2.1-.4 2.5-.6 2.6-.6 2.9-.1.8-.8 1.4-1.6 1.4h-8v-16.9h3.3c1.1 0 2 .7 2.2 1.7.2.8.4 1.6.6 2.4l1.5-.2v-10.1l-1.5-.2c-.2.8-.4 1.6-.6 2.4-.3 1-1.2 1.7-2.2 1.7h-3.3v-15.7h8c.8 0 1.5.6 1.6 1.4.1.5.4 1.5.6 2.3.4 1.8.3 1.7.7 3.7h1.4v-9.7h-15.9z"/><path d="m7.0001 76.3v-11.8c.7.2 1.4.2 2.4.2 6.9 0 10.4-4.3 10.4-12.8s-2.7-11-9.2-11.4h-10.500002v2.1h2.000002c.7 0 1.3.6 1.3 1.3v.4 29 1.5 1.4.5c0 .7-.6 1.3-1.3 1.3h-2.000002v2.1h10.300002v-2.1h-2.1c-.7 0-1.3-.6-1.3-1.3v-.3zm1.9-33.4c5.1 0 7.2 2.5 7.2 9.2s-2.1 10.3-6.8 10.3-1.7 0-2.3-.2v-14.6-4.8h1.9z"/></g></svg>
